X:17201
T:The Scotsman Over The Border
R:Jig
S:Tommy Peoples & Sharon Shannon
H:
N:
D:Concert in Galway
Z:Adrian Scahill
M:6/8
L:1/8
K:D
D3 FDF|AFA d2c|B3 BAB|def edB|\
ADD FDF|AFA d2c|B3 AFA|dAF E2D:||\
dfa afa|bag f2e|dfa afe|def edB|\
dfa afa|bag fed|B3 AFA|dAF E3:||


